src/lib/packages/icons/src/assets/line/book-open-bookmark.svg

<svg width="24" height="24" viewBox="0 0 24 24" fill="none" xmlns="http://www.w3.org/2000/svg">
<path d="M21.0359 4.18199C21.0349 4.18199 21.0349 4.18201 21.0339 4.18101C20.3229 3.84401 19.574 3.61892 18.802 3.46592C18.739 3.43792 18.6679 3.43003 18.5979 3.42003C17.5849 3.24103 16.527 3.20297 15.425 3.33897C13.971 3.51797 12.742 4.34892 12 5.51292C11.259 4.34992 10.029 3.51797 8.57495 3.33897C6.55395 3.09197 4.66806 3.37499 2.96606 4.18199C2.96506 4.18199 2.96511 4.18196 2.96411 4.18296C2.53011 4.38996 2.25 4.83703 2.25 5.32103V18.326C2.25 18.72 2.42992 19.081 2.74292 19.318C3.05592 19.555 3.4711 19.63 3.8501 19.524C6.7581 18.698 9.21601 19.048 11.583 20.625C11.593 20.632 11.605 20.634 11.615 20.64C11.626 20.646 11.634 20.656 11.646 20.662C11.657 20.668 11.6699 20.665 11.6809 20.671C11.7819 20.719 11.889 20.751 11.999 20.751C12.109 20.751 12.2159 20.719 12.3169 20.671C12.3279 20.666 12.3411 20.668 12.3521 20.662C12.3631 20.656 12.3721 20.646 12.3831 20.64C12.3931 20.634 12.405 20.631 12.415 20.625C14.781 19.048 17.2399 18.6979 20.1479 19.5229C20.5279 19.6309 20.9419 19.555 21.2549 19.318C21.5679 19.082 21.748 18.72 21.748 18.326V5.32103C21.75 4.83603 21.4699 4.38899 21.0359 4.18199ZM17.75 4.796V8.70604L17.373 8.48997C17.143 8.35797 16.857 8.35797 16.627 8.48997L16.25 8.70604V4.78697C16.447 4.77497 16.65 4.749 16.843 4.749C17.151 4.749 17.453 4.765 17.75 4.796ZM6.73291 17.593C5.77191 17.593 4.779 17.728 3.75 17.995V5.46995C5.17 4.82695 6.69009 4.61703 8.39209 4.82603C10.0221 5.02703 11.25 6.41694 11.25 8.05894V18.6899C9.815 17.9579 8.31691 17.593 6.73291 17.593ZM20.25 17.996C17.524 17.286 15.055 17.514 12.75 18.691V8.06004C12.75 6.72404 13.569 5.56693 14.75 5.06993V9.99998C14.75 10.268 14.893 10.515 15.124 10.649C15.355 10.783 15.642 10.783 15.873 10.651L17 10.005L18.127 10.651C18.242 10.717 18.371 10.75 18.5 10.75C18.63 10.75 18.76 10.716 18.876 10.649C19.107 10.515 19.25 10.268 19.25 9.99998V5.10399C19.589 5.20599 19.923 5.32293 20.25 5.47093V17.996Z" fill="currentColor"/>
</svg>

<svg xmlns="http://www.w3.org/2000/svg" width="24" height="24" fill="none"><path fill="currentColor" d="m21.036 4.182-.002-.001a9.482 9.482 0 0 0-2.232-.715c-.063-.028-.134-.036-.204-.046a10.643 10.643 0 0 0-3.173-.081A4.748 4.748 0 0 0 12 5.513a4.75 4.75 0 0 0-3.425-2.174c-2.021-.247-3.907.036-5.609.843l-.002.001a1.265 1.265 0 0 0-.714 1.138v13.005c0 .394.18.755.493.992s.728.312 1.107.206c2.908-.826 5.366-.476 7.733 1.101.01.007.022.009.032.015.011.006.019.016.031.022.011.006.024.003.035.009.1.048.208.08.318.08.11 0 .217-.032.318-.08.01-.005.024-.003.035-.009.011-.006.02-.016.031-.022.01-.006.022-.009.032-.015 2.366-1.577 4.825-1.927 7.733-1.102.38.108.794.032 1.107-.205.313-.236.493-.598.493-.992V5.321a1.26 1.26 0 0 0-.712-1.139Zm-3.286.614v3.91l-.377-.216a.752.752 0 0 0-.746 0l-.377.216V4.787c.197-.012.4-.038.593-.038.308 0 .61.016.907.047ZM6.733 17.593c-.961 0-1.954.135-2.983.402V5.47c1.42-.643 2.94-.853 4.642-.644a3.26 3.26 0 0 1 2.858 3.233v10.63a9.788 9.788 0 0 0-4.517-1.096Zm13.517.403c-2.726-.71-5.195-.482-7.5.695V8.06a3.25 3.25 0 0 1 2-2.99V10a.75.75 0 0 0 1.123.651L17 10.005l1.127.646A.75.75 0 0 0 19.25 10V5.104c.339.102.673.219 1 .367v12.525Z"/></svg>
